X:5
T:Piper of Drummond
R:Reel
M:C|
Z:RSPBA MAP list. https://www.rspba.org/documents/prescribed/ThePiperOfDrummond.pdf
Q:"78 bpm"
K:D
[|: {Gdc}d2 {g}f>e {Gdc}d2 {g}A>B | {Gdc}d2 {g}f>e {g}f>B{G}B>c | {Gdc}d2 {g}f>e {Gdc}d2 {g}A>B | {Gdc}d2 {g}d>B {g}A>{d}A{e}A>B :|]
[| {Gdc}d2 {g}f>B {gBd}B2 {g}f>B | {Gdc}d2 {g}f>e {g}f>B{G}B>c | {Gdc}d2 {g}f>B {gBd}B2 {g}f>B | {Gdc}d2 {g}d>B {g}A>{d}A{e}A>B |
{Gdc}d2 {g}f>B {gBd}B2 {g}f>B | {Gdc}d2 {g}f>e {g}f>B{G}B>c | {Gdc}d2 {g}f>e {Gdc}d2 {g}A>B | {Gdc}d2 {g}d>B {g}A>{d}A{e}A |]